public/img/casting-icon-5.svg

<svg width="49" height="49" viewBox="0 0 49 49" fill="none" xmlns="http://www.w3.org/2000/svg">
<g clip-path="url(#clip0)">
<path d="M48.3416 42.4348L48.3186 42.4118L48.3454 42.3812L47.664 41.8032L42.898 37.3779C42.898 37.3779 42.8137 37.4659 42.6759 37.5961C42.6759 37.5961 42.6223 37.6535 42.5496 37.7339C41.4624 38.7483 37.975 41.6845 33.8904 41.7419C33.7985 41.7419 33.7143 41.7419 33.6263 41.7419C31.4749 41.5046 29.377 40.3523 27.2486 38.2124C23.7152 34.6599 19.7875 32.7343 15.5613 32.4702C15.4426 32.4702 15.324 32.4702 15.2091 32.4702C14.5728 32.4138 13.9335 32.3972 13.2951 32.4204C6.92507 32.6807 2.19353 36.9491 0.585714 38.5952C0.252667 38.9168 0.0421131 39.135 0.00383186 39.1771L0.026823 39.2L0 39.2345L0.681417 39.8087L5.44358 44.2187C5.44358 44.2187 5.52783 44.1307 5.66564 43.9967L5.79191 43.8589C6.8791 42.8406 10.3627 39.9044 14.4512 39.8508C14.5392 39.8508 14.6272 39.8508 14.7153 39.8508C16.8667 40.0843 18.9645 41.2404 21.0929 43.3804C24.6263 46.9329 28.5539 48.8584 32.7802 49.1225C32.8989 49.1225 33.0176 49.1225 33.1324 49.1225C33.7688 49.1789 34.4081 49.1955 35.0465 49.1723C41.4127 48.912 46.148 44.6398 47.7559 42.9937C48.0889 42.676 48.2995 42.4578 48.3377 42.4118" fill="url(#paint0_linear)"/>
<path d="M35.2341 8.80469C32.7319 8.80544 30.2862 9.54811 28.2061 10.9388C26.126 12.3295 24.5049 14.3057 23.5479 16.6176C22.5909 18.9295 22.3409 21.4733 22.8295 23.9273C23.3181 26.3812 24.5234 28.6353 26.293 30.4043C28.0625 32.1733 30.3169 33.3779 32.771 33.8658C35.2252 34.3536 37.7688 34.1029 40.0805 33.1452C42.3921 32.1874 44.3678 30.5658 45.7579 28.4853C47.1479 26.4048 47.8898 23.9588 47.8898 21.4566C47.8807 18.105 46.5437 14.8936 44.1716 12.5258C41.7995 10.158 38.5857 8.82685 35.2341 8.82383V8.80469ZM40.4939 16.3308C40.9677 16.3315 41.4307 16.4727 41.8242 16.7365C42.2178 17.0003 42.5244 17.3748 42.7052 17.8128C42.886 18.2507 42.9329 18.7324 42.84 19.197C42.7471 19.6616 42.5185 20.0883 42.1832 20.4231C41.8479 20.7578 41.4209 20.9857 40.9562 21.0778C40.4914 21.17 40.0098 21.1223 39.5721 20.9408C39.1345 20.7593 38.7604 20.4522 38.4972 20.0582C38.2341 19.6642 38.0937 19.201 38.0937 18.7272C38.0937 18.4122 38.1558 18.1002 38.2765 17.8092C38.3972 17.5182 38.5739 17.2539 38.7969 17.0313C39.0198 16.8087 39.2845 16.6323 39.5757 16.5121C39.8669 16.3919 40.1789 16.3303 40.4939 16.3308ZM29.4689 16.3308C29.9429 16.3308 30.4062 16.4713 30.8003 16.7346C31.1943 16.998 31.5015 17.3722 31.6829 17.8101C31.8643 18.248 31.9117 18.7298 31.8192 19.1947C31.7268 19.6596 31.4986 20.0866 31.1634 20.4217C30.8283 20.7568 30.4013 20.9851 29.9364 21.0775C29.4715 21.17 28.9898 21.1226 28.5519 20.9412C28.114 20.7598 27.7397 20.4526 27.4763 20.0586C27.213 19.6645 27.0725 19.2012 27.0725 18.7272C27.0735 18.0919 27.3263 17.483 27.7755 17.0338C28.2247 16.5846 28.8337 16.3318 29.4689 16.3308ZM42.32 28.0563C40.4029 29.8598 37.87 30.8639 35.2379 30.8639C32.6059 30.8639 30.073 29.8598 28.1559 28.0563C27.2852 27.243 26.559 26.2877 26.0083 25.2312L26.8543 24.8484C27.3608 25.8103 28.0275 26.679 28.8258 27.417C30.5658 29.043 32.8583 29.9475 35.2398 29.9475C37.6212 29.9475 39.9139 29.043 41.6539 27.417C42.449 26.6771 43.1141 25.8088 43.6215 24.8484L44.4636 25.2312C43.9168 26.2892 43.1917 27.2449 42.32 28.0563Z" fill="#5A2E91"/>
</g>
<defs>
<linearGradient id="paint0_linear" x1="24.1727" y1="32.4103" x2="24.1744" y2="47.4681" gradientUnits="userSpaceOnUse">
<stop stop-color="#2A5BA6"/>
<stop offset="1" stop-color="#E2127E"/>
</linearGradient>
<clipPath id="clip0">
<rect width="49" height="49" fill="white"/>
</clipPath>
</defs>
</svg>

<svg width="49" height="49" fill="none" xmlns="http://www.w3.org/2000/svg"><g clip-path="url(#clip0)"><path d="M48.342 42.435l-.023-.023.026-.03-.681-.579-4.766-4.425s-.084.088-.222.218l-.126.138c-1.088 1.014-4.575 3.95-8.66 4.008h-.264c-2.151-.237-4.249-1.39-6.377-3.53-3.534-3.552-7.461-5.478-11.688-5.742h-.352a15.36 15.36 0 00-1.914-.05c-6.37.26-11.101 4.53-12.71 6.175-.332.322-.543.54-.581.582l.023.023-.027.034.681.575 4.763 4.41s.084-.088.222-.222l.126-.138c1.087-1.018 4.57-3.955 8.66-4.008h.263c2.152.233 4.25 1.39 6.378 3.53 3.533 3.552 7.46 5.477 11.687 5.742h.352c.637.056 1.276.073 1.915.05 6.366-.261 11.101-4.533 12.709-6.18.333-.317.544-.535.582-.581" fill="url(#paint0_linear)"/><path d="M35.234 8.805A12.652 12.652 0 1047.89 21.457 12.667 12.667 0 0035.234 8.824v-.02zm5.26 7.526a2.395 2.395 0 11-.007 4.79 2.395 2.395 0 01.007-4.79zm-11.025 0a2.397 2.397 0 110 4.793 2.397 2.397 0 010-4.793zM42.32 28.056a10.336 10.336 0 01-14.164 0 10.52 10.52 0 01-2.148-2.825l.846-.383a9.57 9.57 0 001.972 2.569 9.394 9.394 0 0012.828 0 9.695 9.695 0 001.967-2.569l.843.383a10.354 10.354 0 01-2.144 2.825z" fill="#5A2E91"/></g><defs><linearGradient id="paint0_linear" x1="24.173" y1="32.41" x2="24.174" y2="47.468" gradientUnits="userSpaceOnUse"><stop stop-color="#2A5BA6"/><stop offset="1" stop-color="#E2127E"/></linearGradient><clipPath id="clip0"><path fill="#fff" d="M0 0h49v49H0z"/></clipPath></defs></svg>
